icons/filled/bowl-spoon.svg

<svg xmlns="http://www.w3.org/2000/svg" width="24" height="24" viewBox="0 0 24 24" fill="currentColor"><path d="M20 10a2 2 0 0 1 2 2v.5c0 1.694 -2.247 5.49 -3.983 6.983l-.017 .013v.504a2 2 0 0 1 -1.85 1.995l-.15 .005h-8a2 2 0 0 1 -2 -2v-.496l-.065 -.053c-1.76 -1.496 -3.794 -4.965 -3.928 -6.77l-.007 -.181v-.5a2 2 0 0 1 2 -2z"/><path d="M8 2c1.71 0 3.237 .787 3.785 2h8.215a1 1 0 0 1 0 2l-8.216 .001c-.548 1.213 -2.074 1.999 -3.784 1.999c-2.144 0 -4 -1.237 -4 -3s1.856 -3 4 -3"/></svg>

<svg xmlns="http://www.w3.org/2000/svg" width="24" height="24" fill="currentColor"><path d="M20 10a2 2 0 0 1 2 2v.5c0 1.694-2.247 5.49-3.983 6.983l-.017.013V20a2 2 0 0 1-1.85 1.995L16 22H8a2 2 0 0 1-2-2v-.496l-.065-.053c-1.76-1.496-3.794-4.965-3.928-6.77L2 12.5V12a2 2 0 0 1 2-2zM8 2c1.71 0 3.237.787 3.785 2H20a1 1 0 0 1 0 2l-8.216.001C11.236 7.214 9.71 8 8 8 5.856 8 4 6.763 4 5s1.856-3 4-3"/></svg>
